icons/hdd-24-16.svg

<svg width="16" height="16" viewBox="0 0 16 16" fill="none" xmlns="http://www.w3.org/2000/svg">
<g clip-path="url(#clip0_0_45)">
<path d="M12 12.5C12 12.7761 11.7761 13 11.5 13C11.2239 13 11 12.7761 11 12.5C11 12.2239 11.2239 12 11.5 12C11.7761 12 12 12.2239 12 12.5Z" fill="#1F2328"/>
<path d="M3.33343 0.999979L12.6669 0.999979C13.4033 0.999979 14.0002 1.59693 14.0002 2.33331L14.0003 8.99998C14.0003 9.27612 13.7764 9.49998 13.5003 9.49998C13.2241 9.49998 13.0002 9.27612 13.0002 8.99998V2.33331C13.0002 2.14922 12.851 1.99998 12.6669 1.99998L3.33343 1.99998C3.14934 1.99998 3.0001 2.14922 3.0001 2.33331L3.00011 8.99998C3.00011 9.27612 2.77625 9.49998 2.50011 9.49998C2.22396 9.49998 2.0001 9.27612 2.0001 8.99998V2.33331C2.0001 1.59693 2.59704 0.999979 3.33343 0.999979Z" fill="#1F2328"/>
<path fill-rule="evenodd" clip-rule="evenodd" d="M3.33335 10H12.6667C13.4031 10 14 10.597 14 11.3334V13.5C14 14.2364 13.4031 14.8333 12.6667 14.8333H3.33335C2.59697 14.8333 2.00002 14.2364 2.00002 13.5V11.3334C2.00002 10.597 2.59697 10 3.33335 10ZM3.33335 11C3.14925 11 3.00002 11.1493 3.00002 11.3334V13.5C3.00002 13.6841 3.14925 13.8333 3.33335 13.8333H12.6667C12.8508 13.8333 13 13.6841 13 13.5V11.3334C13 11.1493 12.8508 11 12.6667 11H3.33335Z" fill="#1F2328"/>
</g>
<defs>
<clipPath id="clip0_0_45">
<rect width="16" height="16" fill="white"/>
</clipPath>
</defs>
</svg>

<svg xmlns="http://www.w3.org/2000/svg" width="16" height="16" viewBox="0 0 16 16"><path d="M12 12.5a.5.5 0 1 1-1 0 .5.5 0 0 1 1 0ZM3.333 1h9.334C13.403 1 14 1.597 14 2.333V9a.5.5 0 0 1-1 0V2.333A.333.333 0 0 0 12.667 2H3.333A.333.333 0 0 0 3 2.333V9a.5.5 0 0 1-1 0V2.333C2 1.597 2.597 1 3.333 1Z"/><path d="M3.333 10h9.334c.736 0 1.333.597 1.333 1.333V13.5c0 .736-.597 1.333-1.333 1.333H3.333A1.333 1.333 0 0 1 2 13.5v-2.167C2 10.597 2.597 10 3.333 10Zm0 1a.333.333 0 0 0-.333.333V13.5c0 .184.149.333.333.333h9.334A.333.333 0 0 0 13 13.5v-2.167a.333.333 0 0 0-.333-.333Z"/></svg>
